X:26
T:Steyrer Tanz in C, nr. 9
C:traditionell
R:Steirer
A:Hallstatt, Salzkammergut
B:Corpus Musicae Popularis Austriacae (COMPA), 5.Band: J.M.Schmalnauer " Tanz Musik", Verlag Boehlau, Wien 1996
S:manuscript des Johann Michael Schmalnauer um 1820
N:im der quelle in C
Z:abc transcription Simon Wascher
F:http://simonwascher.info/TradArchiv/
M:3/4
L:1/8
K:C
V:1
%violino 1mo
eGed c2 | DBBD d2 | dFdc B2 | EccE e2 |\
eGed c2 | DBBD d2 | dFdBGB | "n G" c4 :|
V:2
%violino 2do
gGgf Te2 | BddG f2 | fGfe d2 | BeeG g2 |\
gGgf Te2 | BddG f2 | fGfdBd | e4 :|
